images/icon-services-4.svg

<svg width="47" height="48" viewBox="0 0 47 48" fill="none" xmlns="http://www.w3.org/2000/svg">
<g clip-path="url(#clip0_107_734)">
<path fill-rule="evenodd" clip-rule="evenodd" d="M18.9098 0.167377C17.77 0.291486 16.257 0.840707 15.2103 1.51018C14.6199 1.88793 13.3473 3.07064 13.0245 3.54155C12.8536 3.79106 12.6992 3.88405 12.2571 4.00375C8.98922 4.88831 6.94518 6.0802 6.37264 7.43503C6.17023 7.91411 6.20796 8.70191 6.45902 9.23682C6.96602 10.3168 8.76496 11.4745 11.032 12.1794C11.4453 12.308 11.5654 12.3889 11.6108 12.5697C11.7217 13.0117 12.3164 14.1604 12.7994 14.8657C13.0682 15.2581 13.3944 15.789 13.5243 16.0453C14.1857 17.3504 14.9956 20.3226 16.0135 25.1791C16.338 26.7275 16.6863 28.1565 16.7874 28.3548C16.9899 28.7515 17.5194 29.259 17.8703 29.3924C18.1707 29.5066 18.7453 29.5009 19.0645 29.3806C19.4326 29.2418 19.9016 28.7659 20.1445 28.2847C20.2591 28.0575 21.1074 25.6616 22.0295 22.9604C22.9516 20.2593 23.743 18.0093 23.7882 17.9605C23.8927 17.8471 25.0315 17.7807 25.5424 17.8581L25.9323 17.9172L27.6764 23.027C28.6357 25.8374 29.5298 28.3093 29.6633 28.5199C30.1678 29.3161 30.9941 29.6546 31.7911 29.3916C32.2231 29.249 32.8167 28.644 32.9947 28.1647C33.0734 27.953 33.3863 26.5818 33.69 25.1177C33.9937 23.6535 34.3895 21.8489 34.5695 21.1073L34.897 19.7589L36.5398 19.7303C38.7085 19.6925 38.5896 19.7987 38.6296 17.8634L38.6591 16.4429H40.0688H41.4785L41.6687 16.201C41.8478 15.9734 41.859 15.8431 41.859 13.9937C41.859 12.0294 41.8589 12.0282 41.6337 11.803C41.4239 11.5931 41.3435 11.5775 40.4632 11.5764L39.5182 11.5751L40.196 11.2056C41.1096 10.7076 41.8432 10.114 42.2006 9.58381C43.4937 7.6647 41.9592 5.75083 38.0947 4.46319C37.127 4.14071 37.0893 4.11786 36.7196 3.62812C35.853 2.48038 34.693 1.53983 33.392 0.930209C31.4713 0.0300489 29.4985 -0.105535 27.4293 0.520152C25.796 1.01411 23.9738 1.04771 22.6171 0.609012C21.3992 0.215111 20.001 0.0485919 18.9098 0.167377ZM18.3007 1.61189C15.6033 2.22326 13.4151 4.39848 12.6571 7.22224C12.4464 8.00701 12.3657 10.0077 12.5106 10.853L12.5831 11.2757L13.704 11.5199C16.9364 12.2239 20.0425 12.5226 24.234 12.5328C27.9217 12.5416 30.4762 12.3774 30.4762 12.1313C30.4762 12.0464 30.5719 11.887 30.6886 11.7772C30.8875 11.5904 30.9902 11.5776 32.2951 11.5776H33.6891V10.2131C33.6891 8.97152 33.7063 8.82667 33.8794 8.60663L34.0696 8.36475H35.6587H37.2479L37.1287 7.74512C36.6506 5.25852 35.0401 3.1494 32.8301 2.11521C31.2371 1.36973 29.3356 1.27628 27.5846 1.85736L26.6666 2.16194L24.8307 2.15983C22.9987 2.15762 22.9927 2.15698 22.0768 1.8524C21.2727 1.585 21.0164 1.54323 20.0114 1.51569C19.2542 1.49494 18.6723 1.52762 18.3007 1.61189ZM10.9246 5.79746C9.69431 6.2312 8.67059 6.78006 8.12596 7.29779C7.41077 7.97764 7.35331 8.42322 7.9006 9.04652C8.37859 9.59097 9.5467 10.2491 10.8642 10.7164C11.1891 10.8316 11.2131 10.829 11.1577 10.685C11.1247 10.5987 11.0976 10.0086 11.0976 9.37378C11.0976 7.96506 11.2971 6.90986 11.7959 5.67969C11.8814 5.46901 11.84 5.47461 10.9246 5.79746ZM38.0035 5.84198C38.0035 5.86484 38.1038 6.22937 38.2263 6.65209C38.4513 7.42869 38.6302 8.71936 38.6702 9.85672L38.692 10.4767L39.4723 10.0884C39.9697 9.84084 40.4439 9.51468 40.7804 9.18853C41.2597 8.72404 41.3082 8.64124 41.3082 8.28745C41.3082 7.95331 41.2506 7.83636 40.903 7.46578C40.6802 7.22812 40.2737 6.89838 39.9998 6.73306C39.5019 6.43251 38.0035 5.76368 38.0035 5.84198ZM35.0514 11.081C35.0105 12.954 35.1066 12.8628 33.174 12.8628H31.7614V14.0103V15.1577H33.1444C33.905 15.1577 34.6029 15.1982 34.6953 15.2476C34.9754 15.3975 35.0661 15.8615 35.0661 17.145V18.3706H36.1676H37.2692V16.9895C37.2692 15.6455 37.2752 15.6023 37.4945 15.3831C37.7137 15.1638 37.757 15.1577 39.101 15.1577H40.4821V14.0103V12.8628H39.0659H37.6497L37.4595 12.6209C37.2863 12.4009 37.2692 12.256 37.2692 11.0145V9.6499H36.1759H35.0825L35.0514 11.081ZM13.1931 12.9316C13.2919 13.193 13.5947 13.6978 14.0052 14.2856C15.2141 16.0168 15.9774 18.488 17.351 25.1177C17.6124 26.3799 17.8808 27.5435 17.9472 27.7036C18.1994 28.3106 18.675 28.2916 18.9859 27.662C19.0785 27.4743 19.9341 25.0299 20.887 22.23C21.84 19.4301 22.6921 17.0668 22.7806 16.9783C23.0569 16.702 23.9349 16.4959 24.8307 16.4969C25.7254 16.498 26.6994 16.723 26.928 16.9815C27.0008 17.064 27.8675 19.4938 28.854 22.3814C29.8405 25.2689 30.6926 27.7154 30.7477 27.8182C30.9176 28.1359 31.1891 28.228 31.4504 28.0569C31.5754 27.9749 31.7127 27.8159 31.7555 27.7034C31.7983 27.591 32.0884 26.2816 32.4004 24.7937C32.7123 23.3058 33.1299 21.4123 33.3283 20.5859C33.6618 19.1971 33.6891 18.9835 33.6891 17.7632V16.4429H32.2662C30.3945 16.4429 30.4762 16.5168 30.4762 14.8247V13.5737L30.132 13.6264C28.0783 13.9405 21.5079 13.9316 18.5404 13.6107C16.7974 13.4222 15.0669 13.1631 13.878 12.9125C13.5086 12.8347 13.1898 12.771 13.1694 12.771C13.149 12.771 13.1596 12.8432 13.1931 12.9316ZM10.8651 17.099C10.5959 17.232 10.4645 17.5605 10.4645 18.0995V18.5542H9.93106C9.28187 18.5542 8.99574 18.7616 8.99574 19.232C8.99574 19.6831 9.22505 19.8394 9.88727 19.8394H10.4431L10.4818 20.4483C10.5254 21.1327 10.7278 21.3999 11.2024 21.3999C11.6104 21.3999 11.8414 21.0303 11.8414 20.3777V19.8394H12.4239C13.0243 19.8394 13.2015 19.7452 13.3415 19.3516C13.4129 19.1507 13.1912 18.6904 12.9848 18.6112C12.9031 18.5799 12.6172 18.5542 12.3495 18.5542H11.8628L11.8247 17.9564C11.8021 17.5999 11.7329 17.3059 11.6534 17.228C11.4664 17.0449 11.0969 16.9844 10.8651 17.099ZM38.0453 24.6546C37.8558 24.844 37.82 24.968 37.82 25.4348V25.9897H37.265C36.7982 25.9897 36.6742 26.0255 36.4848 26.2151C36.2095 26.4903 36.1998 26.7154 36.4497 27.033C36.62 27.2495 36.7019 27.2749 37.23 27.2749H37.82V27.8298C37.82 28.2967 37.8558 28.4206 38.0453 28.6101C38.3182 28.883 38.6734 28.9 38.9215 28.6519C39.0675 28.5059 39.1051 28.3459 39.1051 27.8716V27.2749H39.7018C40.3852 27.2749 40.6657 27.0926 40.6657 26.6483C40.6657 26.2088 40.3356 25.9897 39.673 25.9897H39.1051V25.3998C39.1051 24.8717 39.0797 24.7898 38.8632 24.6195C38.5456 24.3696 38.3205 24.3793 38.0453 24.6546ZM16.3874 30.2236C15.7821 30.4318 15.3819 30.6563 12.7781 32.2485C11.8023 32.8452 10.9755 33.3329 10.9407 33.3324C10.906 33.3317 10.7832 33.1856 10.6679 33.0076C10.4369 32.6511 10.0993 32.4767 9.83788 32.5788C9.74471 32.6152 8.50664 33.3865 7.08664 34.2928C4.16998 36.1541 4.14345 36.1805 4.51715 36.8413C5.12595 37.918 10.7891 46.7186 10.9926 46.9045C11.1377 47.0369 11.3048 47.1041 11.4296 47.0803C11.7294 47.023 16.8837 43.7066 16.9945 43.4998C17.1264 43.2532 17.0466 43.0087 16.6178 42.3454C16.4143 42.0303 16.2477 41.7562 16.2477 41.7361C16.2477 41.7161 16.6649 41.4477 17.1747 41.1396L18.1018 40.5797L22.4301 42.0177C26.3186 43.3095 26.8377 43.4602 27.5387 43.5006C28.446 43.5529 29.2338 43.3896 30.0172 42.9869C30.5304 42.7231 39.8158 36.7967 40.3738 36.3768C41.0698 35.8531 41.5615 34.7153 41.4603 33.8619C41.3015 32.5204 40.2356 31.4403 38.8883 31.2556C38.0138 31.1357 37.5682 31.3496 34.2858 33.4638L31.2565 35.4149L31.0509 35.0221C30.82 34.5809 30.2849 34.0252 29.8978 33.8244C29.6471 33.6944 19.5023 30.3242 18.7721 30.1283C18.1634 29.965 17.0048 30.0114 16.3874 30.2236ZM16.7985 31.4811C16.4194 31.6082 11.9015 34.2526 11.6727 34.4814C11.6301 34.5239 15.3875 40.4618 15.5017 40.5323C15.5397 40.5559 16.0748 40.2676 16.691 39.8918C17.307 39.516 17.894 39.2085 17.9953 39.2085C18.0967 39.2085 20.1208 39.8511 22.4935 40.6364C24.866 41.4217 27.0334 42.1011 27.3098 42.1461C27.9392 42.2485 28.8101 42.117 29.3717 41.8346C29.6006 41.7195 32.0206 40.1944 34.7496 38.4455C40.2301 34.9331 40.1149 35.0266 40.1149 34.0919C40.1149 33.2621 39.4538 32.5991 38.6265 32.5991C38.3783 32.5991 38.0849 32.6455 37.9745 32.702C37.8643 32.7587 36.3275 33.7296 34.5596 34.8597L31.3452 36.9145L31.1856 37.3636C30.9741 37.9592 30.2768 38.7225 29.6978 38.9921C29.3536 39.1524 29.0739 39.2069 28.5932 39.2076C28.0241 39.2084 27.6512 39.1091 25.3856 38.3533C23.2859 37.6529 22.79 37.4553 22.6451 37.2613C22.423 36.9639 22.5279 36.565 22.8803 36.3663C23.1037 36.2403 23.2791 36.2841 25.7281 37.0777C27.1634 37.5428 28.4705 37.9233 28.6327 37.9233C29.2169 37.9233 29.7751 37.4542 29.9694 36.7995C30.0417 36.5559 30.0855 36.3064 30.0667 36.245C30.048 36.1836 30.0079 36.0205 29.9777 35.8825C29.9475 35.7446 29.7953 35.4865 29.6394 35.309C29.3707 35.003 29.0733 34.8928 23.9263 33.1903C17.9772 31.2226 17.74 31.1657 16.7985 31.4811ZM7.84828 35.3604C6.76865 36.0563 6.0172 36.5985 6.02409 36.6766C6.04144 36.8729 11.5044 45.4411 11.6119 45.4408C11.7418 45.4404 15.3591 43.1136 15.3943 43.0078C15.431 42.8978 9.90067 34.2259 9.77601 34.1977C9.72552 34.1863 8.85804 34.7095 7.84828 35.3604Z" fill="#1E84B5"/>
<path fill-rule="evenodd" clip-rule="evenodd" d="M18.9104 0.167377C17.7705 0.291486 16.2575 0.840707 15.2109 1.51018C14.6204 1.88793 13.3478 3.07064 13.0251 3.54155C12.8542 3.79106 12.6998 3.88405 12.2577 4.00375C8.98978 4.88831 6.94574 6.0802 6.3732 7.43503C6.17079 7.91412 6.20852 8.70192 6.45958 9.23682C6.96658 10.3168 8.76552 11.4745 11.0325 12.1794C11.4459 12.308 11.566 12.3889 11.6114 12.5697C11.7223 13.0117 12.317 14.1604 12.8 14.8657C13.0688 15.2581 13.3949 15.789 13.5248 16.0453C14.1862 17.3504 14.9961 20.3226 16.0141 25.1791C16.3386 26.7275 16.6869 28.1565 16.7879 28.3548C16.9904 28.7515 17.5199 29.259 17.8709 29.3924C18.1713 29.5066 18.7459 29.5009 19.065 29.3806C19.4331 29.2418 19.9021 28.7659 20.145 28.2847C20.2597 28.0575 21.108 25.6616 22.0301 22.9604C22.9522 20.2593 23.7436 18.0093 23.7887 17.9605C23.8933 17.8471 25.0321 17.7807 25.543 17.8581L25.9328 17.9172L27.677 23.027C28.6362 25.8374 29.5303 28.3093 29.6639 28.5199C30.1683 29.3161 30.9947 29.6546 31.7917 29.3916C32.2237 29.249 32.8172 28.6441 32.9953 28.1647C33.074 27.953 33.3868 26.5818 33.6906 25.1177C33.9942 23.6535 34.3901 21.8489 34.5701 21.1073L34.8975 19.7589L36.5403 19.7303C38.7091 19.6925 38.5901 19.7987 38.6302 17.8634L38.6596 16.4429H40.0694H41.4791L41.6693 16.201C41.8484 15.9734 41.8596 15.8431 41.8596 13.9937C41.8596 12.0294 41.8595 12.0282 41.6342 11.803C41.4245 11.5932 41.344 11.5775 40.4638 11.5764L39.5188 11.5751L40.1966 11.2056C41.1101 10.7076 41.8438 10.114 42.2012 9.58381C43.4943 7.6647 41.9597 5.75083 38.0953 4.4632C37.1275 4.14071 37.0899 4.11786 36.7202 3.62812C35.8536 2.48038 34.6936 1.53983 33.3926 0.930209C31.4718 0.0300488 29.499 -0.105535 27.4298 0.520152C25.7966 1.01411 23.9743 1.04771 22.6177 0.609012C21.3998 0.215111 20.0016 0.0485919 18.9104 0.167377ZM18.3013 1.61189C15.6038 2.22326 13.4157 4.39848 12.6576 7.22224C12.4469 8.00701 12.3663 10.0077 12.5112 10.853L12.5836 11.2757L13.7046 11.5199C16.937 12.2239 20.043 12.5226 24.2346 12.5328C27.9222 12.5416 30.4768 12.3774 30.4768 12.1313C30.4768 12.0464 30.5724 11.887 30.6892 11.7772C30.8881 11.5904 30.9907 11.5776 32.2956 11.5776H33.6897V10.2131C33.6897 8.97152 33.7068 8.82667 33.88 8.60663L34.0702 8.36475H35.6593H37.2484L37.1293 7.74512C36.6511 5.25852 35.0406 3.1494 32.8306 2.11522C31.2377 1.36973 29.3362 1.27628 27.5852 1.85736L26.6672 2.16194L24.8313 2.15983C22.9993 2.15762 22.9933 2.15698 22.0774 1.8524C21.2733 1.585 21.017 1.54323 20.0119 1.51569C19.2548 1.49494 18.6729 1.52762 18.3013 1.61189ZM10.9251 5.79746C9.69487 6.2312 8.67115 6.78006 8.12652 7.29779C7.41133 7.97764 7.35387 8.42322 7.90116 9.04652C8.37915 9.59097 9.54726 10.2491 10.8647 10.7164C11.1897 10.8316 11.2137 10.829 11.1583 10.685C11.1253 10.5987 11.0982 10.0086 11.0982 9.37378C11.0982 7.96506 11.2976 6.90986 11.7965 5.67969C11.8819 5.46901 11.8405 5.47461 10.9251 5.79746ZM38.0041 5.84198C38.0041 5.86484 38.1044 6.22937 38.2269 6.65209C38.4519 7.42869 38.6307 8.71936 38.6707 9.85672L38.6926 10.4767L39.4729 10.0884C39.9703 9.84084 40.4444 9.51469 40.781 9.18853C41.2602 8.72404 41.3088 8.64124 41.3088 8.28745C41.3088 7.95331 41.2511 7.83636 40.9036 7.46578C40.6807 7.22812 40.2742 6.89838 40.0003 6.73306C39.5024 6.43251 38.0041 5.76368 38.0041 5.84198ZM35.0519 11.081C35.0111 12.954 35.1072 12.8628 33.1746 12.8628H31.7619V14.0103V15.1577H33.1449C33.9056 15.1577 34.6035 15.1982 34.6958 15.2476C34.9759 15.3975 35.0666 15.8615 35.0666 17.145V18.3706H36.1682H37.2697V16.9895C37.2697 15.6455 37.2758 15.6023 37.4951 15.3831C37.7143 15.1638 37.7575 15.1577 39.1015 15.1577H40.4826V14.0103V12.8628H39.0665H37.6502L37.46 12.6209C37.2869 12.4009 37.2697 12.256 37.2697 11.0145V9.6499H36.1764H35.083L35.0519 11.081ZM13.1936 12.9316C13.2925 13.193 13.5952 13.6978 14.0057 14.2856C15.2147 16.0168 15.978 18.488 17.3516 25.1177C17.613 26.3799 17.8813 27.5435 17.9478 27.7036C18.1999 28.3106 18.6755 28.2916 18.9865 27.662C19.0791 27.4743 19.9346 25.0299 20.8876 22.23C21.8405 19.4301 22.6927 17.0668 22.7812 16.9783C23.0575 16.702 23.9355 16.4959 24.8313 16.4969C25.726 16.498 26.7 16.723 26.9285 16.9815C27.0013 17.064 27.8681 19.4938 28.8545 22.3814C29.8411 25.2689 30.6931 27.7154 30.7482 27.8182C30.9181 28.1359 31.1897 28.228 31.4509 28.0569C31.5759 27.9749 31.7133 27.8159 31.7561 27.7034C31.7988 27.591 32.089 26.2816 32.4009 24.7937C32.7128 23.3058 33.1304 21.4123 33.3289 20.5859C33.6624 19.1971 33.6897 18.9835 33.6897 17.7632V16.4429H32.2668C30.3951 16.4429 30.4768 16.5168 30.4768 14.8247V13.5737L30.1325 13.6264C28.0789 13.9405 21.5085 13.9316 18.541 13.6107C16.7979 13.4222 15.0675 13.1631 13.8785 12.9125C13.5091 12.8347 13.1903 12.771 13.1699 12.771C13.1496 12.771 13.1602 12.8432 13.1936 12.9316ZM10.8656 17.099C10.5965 17.232 10.465 17.5605 10.465 18.0995V18.5542H9.93162C9.28243 18.5542 8.9963 18.7616 8.9963 19.232C8.9963 19.6831 9.22561 19.8394 9.88783 19.8394H10.4437L10.4824 20.4483C10.526 21.1327 10.7283 21.3999 11.2029 21.3999C11.6109 21.3999 11.842 21.0303 11.842 20.3777V19.8394H12.4245C13.0249 19.8394 13.2021 19.7452 13.3421 19.3516C13.4135 19.1507 13.1918 18.6904 12.9853 18.6112C12.9036 18.5799 12.6178 18.5542 12.3501 18.5542H11.8634L11.8253 17.9564C11.8026 17.5999 11.7335 17.3059 11.654 17.228C11.4669 17.0449 11.0974 16.9844 10.8656 17.099ZM38.0459 24.6546C37.8563 24.844 37.8205 24.968 37.8205 25.4348V25.9897H37.2656C36.7987 25.9897 36.6748 26.0255 36.4853 26.2151C36.21 26.4903 36.2004 26.7154 36.4503 27.033C36.6205 27.2495 36.7024 27.2749 37.2305 27.2749H37.8205V27.8298C37.8205 28.2967 37.8563 28.4206 38.0459 28.6101C38.3188 28.883 38.674 28.9 38.9221 28.6519C39.068 28.5059 39.1057 28.3459 39.1057 27.8716V27.2749H39.7024C40.3858 27.2749 40.6662 27.0926 40.6662 26.6483C40.6662 26.2088 40.3361 25.9897 39.6735 25.9897H39.1057V25.3998C39.1057 24.8717 39.0802 24.7898 38.8638 24.6195C38.5462 24.3696 38.3211 24.3793 38.0459 24.6546Z" fill="#0E384C"/>
</g>
<defs>
<clipPath id="clip0_107_734">
<rect width="47" height="47" fill="white" transform="translate(0 0.103027)"/>
</clipPath>
</defs>
</svg>

<svg xmlns="http://www.w3.org/2000/svg" width="47" height="48" fill="none" viewBox="0 0 47 48"><g fill-rule="evenodd" clip-path="url(#a)" clip-rule="evenodd"><path fill="#1e84b5" d="M18.91.167c-1.14.124-2.653.674-3.7 1.343-.59.378-1.863 1.56-2.186 2.032-.17.25-.325.342-.767.462-3.268.884-5.312 2.076-5.884 3.431-.203.48-.165 1.267.086 1.802.507 1.08 2.306 2.238 4.573 2.942.413.129.533.21.579.39.11.443.705 1.591 1.188 2.297.27.392.595.923.725 1.18.662 1.304 1.472 4.277 2.49 9.133.324 1.549.672 2.978.773 3.176.203.396.732.904 1.083 1.037.3.115.875.109 1.194-.011.369-.14.838-.615 1.08-1.096.115-.227.963-2.623 1.886-5.325.922-2.7 1.713-4.95 1.758-5 .105-.113 1.244-.18 1.754-.102l.39.06 1.744 5.109c.96 2.81 1.854 5.282 1.987 5.493.505.796 1.331 1.135 2.128.872.432-.143 1.026-.748 1.204-1.227.078-.212.391-1.583.695-3.047s.7-3.27.88-4.01l.327-1.35 1.643-.028c2.169-.038 2.05.069 2.09-1.867l.03-1.42h2.819l.19-.242c.179-.228.19-.358.19-2.207 0-1.965 0-1.966-.225-2.191-.21-.21-.29-.226-1.17-.227h-.946l.678-.37c.914-.498 1.647-1.092 2.005-1.622 1.293-1.92-.242-3.833-4.106-5.12-.968-.323-1.006-.346-1.375-.836A9 9 0 0 0 33.392.93c-1.92-.9-3.894-1.036-5.963-.41-1.633.494-3.455.528-4.812.089C21.4.215 20.001.049 18.91.167m-.61 1.445c-2.697.611-4.885 2.786-5.643 5.61-.21.785-.291 2.786-.146 3.631l.072.423 1.121.244c3.232.704 6.339 1.003 10.53 1.013 3.688.009 6.242-.156 6.242-.402 0-.085.096-.244.213-.354.198-.187.301-.2 1.606-.2h1.394v-1.364c0-1.241.017-1.386.19-1.606l.19-.242h3.179l-.12-.62c-.477-2.486-2.088-4.596-4.298-5.63-1.593-.745-3.494-.839-5.245-.258l-.918.305-1.836-.002c-1.832-.002-1.838-.003-2.754-.308-.804-.267-1.06-.309-2.066-.336-.757-.021-1.339.012-1.71.096m-7.375 4.185c-1.23.434-2.254.983-2.799 1.5-.715.68-.773 1.126-.225 1.75.478.544 1.646 1.202 2.963 1.67.325.115.35.112.294-.032-.033-.086-.06-.676-.06-1.311 0-1.409.2-2.464.698-3.694.085-.211.044-.205-.871.117m27.079.045c0 .023.1.387.222.81.225.777.404 2.067.444 3.205l.022.62.78-.389a5.4 5.4 0 0 0 1.308-.9c.48-.464.528-.547.528-.9 0-.335-.057-.452-.405-.822A5 5 0 0 0 40 6.733c-.498-.3-1.996-.97-1.996-.891m-2.953 5.239c-.04 1.873.056 1.782-1.877 1.782h-1.413v2.295h1.383c.761 0 1.459.04 1.551.09.28.15.371.614.371 1.897v1.226h2.203V16.99c0-1.344.006-1.388.226-1.607.219-.22.262-.225 1.606-.225h1.381v-2.295H37.65l-.19-.242c-.174-.22-.19-.365-.19-1.607V9.65h-2.187zm-21.858 1.85c.099.262.402.767.812 1.355 1.21 1.73 1.972 4.202 3.346 10.832.261 1.262.53 2.426.596 2.586.252.607.728.588 1.039-.042.092-.188.948-2.632 1.901-5.432s1.805-5.163 1.894-5.252c.276-.276 1.154-.482 2.05-.481.894.001 1.868.226 2.097.485.073.082.94 2.512 1.926 5.4.986 2.887 1.839 5.333 1.894 5.436.17.318.441.41.702.239a.9.9 0 0 0 .306-.354c.042-.112.332-1.421.644-2.91.312-1.487.73-3.38.928-4.207.334-1.389.361-1.602.361-2.823v-1.32h-1.423c-1.871 0-1.79.074-1.79-1.618v-1.251l-.344.052c-2.054.315-8.624.306-11.592-.015-1.743-.189-3.473-.448-4.662-.699-.37-.077-.688-.141-.709-.141-.02 0-.01.072.024.16M10.865 17.1c-.27.133-.4.462-.4 1v.455H9.93c-.65 0-.935.208-.935.678 0 .451.229.607.891.607h.556l.039.61c.043.684.246.95.72.95.408 0 .64-.369.64-1.021v-.539h.582c.6 0 .777-.094.918-.487.07-.201-.15-.662-.357-.74-.082-.032-.368-.058-.635-.058h-.487l-.038-.598c-.023-.356-.092-.65-.172-.728-.187-.183-.556-.244-.788-.129m27.18 7.556c-.19.189-.225.313-.225.78v.555h-.555c-.467 0-.59.036-.78.225-.276.275-.285.5-.035.818.17.216.252.242.78.242h.59v.555c0 .467.036.59.225.78.273.273.628.29.877.042.146-.146.183-.306.183-.78v-.597h.597c.683 0 .964-.182.964-.627q0-.659-.993-.658h-.568v-.59c0-.528-.025-.61-.242-.78-.317-.25-.542-.24-.818.035m-21.658 5.569c-.605.208-1.005.432-3.609 2.024-.976.597-1.803 1.085-1.837 1.084s-.158-.146-.273-.324c-.231-.357-.569-.531-.83-.43-.093.037-1.331.808-2.751 1.715-2.917 1.861-2.944 1.888-2.57 2.548.609 1.077 6.272 9.878 6.476 10.063.145.133.312.2.437.176.3-.057 5.454-3.373 5.564-3.58.132-.247.053-.491-.376-1.155-.204-.315-.37-.589-.37-.609s.417-.288.927-.596l.927-.56 4.328 1.438c3.889 1.291 4.408 1.442 5.109 1.483a4.6 4.6 0 0 0 2.478-.514c.513-.264 9.799-6.19 10.357-6.61.696-.524 1.188-1.662 1.086-2.515a3.006 3.006 0 0 0-2.572-2.606c-.874-.12-1.32.094-4.602 2.208l-3.03 1.95-.205-.392c-.231-.441-.766-.997-1.153-1.198-.25-.13-10.396-3.5-11.126-3.696-.609-.163-1.767-.117-2.385.096m.412 1.257c-.38.127-4.897 2.772-5.126 3-.043.043 3.714 5.98 3.829 6.051.038.024.573-.264 1.189-.64s1.203-.684 1.304-.684c.102 0 2.126.643 4.499 1.428 2.372.786 4.54 1.465 4.816 1.51.63.102 1.5-.029 2.062-.311.229-.116 2.649-1.64 5.378-3.39 5.48-3.512 5.365-3.418 5.365-4.353 0-.83-.661-1.493-1.489-1.493-.248 0-.541.047-.651.103-.11.057-1.648 1.028-3.415 2.158l-3.215 2.054-.16.45c-.21.595-.908 1.358-1.487 1.628-.344.16-.624.215-1.105.216-.569 0-.942-.099-3.207-.855-2.1-.7-2.596-.898-2.74-1.092-.223-.297-.118-.696.234-.895.224-.126.4-.082 2.848.712 1.435.465 2.742.845 2.905.845.584 0 1.142-.469 1.336-1.123.073-.244.116-.494.098-.555a6 6 0 0 1-.09-.362c-.03-.138-.182-.397-.338-.574-.268-.306-.566-.416-5.713-2.119-5.949-1.967-6.186-2.024-7.127-1.709m-8.95 3.88c-1.08.695-1.832 1.238-1.825 1.316.017.196 5.48 8.764 5.588 8.764.13 0 3.747-2.327 3.782-2.433.037-.11-5.493-8.782-5.618-8.81-.05-.012-.918.511-1.928 1.162"/><path fill="#0e384c" d="M18.91.167c-1.14.124-2.652.674-3.7 1.343-.59.378-1.862 1.56-2.185 2.032-.17.25-.325.342-.767.462-3.268.884-5.312 2.076-5.885 3.431-.202.48-.164 1.267.087 1.802.507 1.08 2.306 2.238 4.573 2.942.413.129.533.21.578.39.111.443.706 1.591 1.189 2.297.269.392.595.923.725 1.18.661 1.304 1.471 4.277 2.49 9.133.324 1.549.672 2.978.773 3.176.202.396.732.904 1.083 1.037.3.115.875.109 1.194-.011.368-.14.837-.615 1.08-1.096.115-.227.963-2.623 1.885-5.325.922-2.7 1.714-4.95 1.759-5 .104-.113 1.243-.18 1.754-.102l.39.06 1.744 5.109c.96 2.81 1.853 5.282 1.987 5.493.504.796 1.33 1.135 2.128.872.432-.143 1.025-.748 1.203-1.227.079-.212.392-1.583.696-3.047s.7-3.27.88-4.01l.327-1.35 1.642-.028c2.17-.038 2.05.069 2.09-1.867l.03-1.42h2.82l.19-.242c.178-.228.19-.358.19-2.207 0-1.965 0-1.966-.226-2.191-.21-.21-.29-.226-1.17-.227h-.945l.678-.37c.913-.498 1.647-1.092 2.004-1.622 1.293-1.92-.241-3.833-4.106-5.12-.968-.323-1.005-.346-1.375-.836A9 9 0 0 0 33.393.93C31.472.03 29.499-.106 27.43.52c-1.633.494-3.456.528-4.812.089C21.4.215 20.002.049 18.91.167m-.609 1.445c-2.697.611-4.885 2.786-5.643 5.61-.211.785-.292 2.786-.147 3.631l.073.423 1.12.244c3.233.704 6.339 1.003 10.53 1.013 3.688.009 6.243-.156 6.243-.402 0-.085.095-.244.212-.354.2-.187.302-.2 1.607-.2h1.394v-1.364c0-1.241.017-1.386.19-1.606l.19-.242h3.178l-.119-.62c-.478-2.486-2.088-4.596-4.298-5.63-1.593-.745-3.495-.839-5.246-.258l-.918.305-1.836-.002c-1.832-.002-1.838-.003-2.754-.308-.804-.267-1.06-.309-2.065-.336-.757-.021-1.34.012-1.71.096m-7.376 4.185c-1.23.434-2.254.983-2.798 1.5-.716.68-.773 1.126-.226 1.75.478.544 1.646 1.202 2.964 1.67.325.115.349.112.293-.032-.033-.086-.06-.676-.06-1.311 0-1.409.2-2.464.698-3.694.086-.211.045-.205-.87.117m27.08.045c0 .023.1.387.222.81.225.777.404 2.067.444 3.205l.022.62.78-.389a5.4 5.4 0 0 0 1.308-.9c.48-.464.528-.547.528-.9 0-.335-.058-.452-.405-.822A5 5 0 0 0 40 6.733c-.498-.3-1.996-.97-1.996-.891m-2.953 5.239c-.04 1.873.055 1.782-1.877 1.782h-1.413v2.295h1.383c.76 0 1.458.04 1.55.09.28.15.372.614.372 1.897v1.226h2.203V16.99c0-1.344.006-1.388.225-1.607.22-.22.263-.225 1.607-.225h1.38v-2.295H37.65l-.19-.242c-.173-.22-.19-.365-.19-1.607V9.65h-2.187zm-21.858 1.85c.098.262.401.767.812 1.355 1.209 1.73 1.972 4.202 3.346 10.832.261 1.262.53 2.426.596 2.586.252.607.727.588 1.038-.042.093-.188.949-2.632 1.902-5.432.952-2.8 1.805-5.163 1.893-5.252.277-.276 1.155-.482 2.05-.481s1.869.226 2.098.485c.072.082.94 2.512 1.926 5.4.986 2.887 1.838 5.333 1.893 5.436.17.318.442.41.703.239a.9.9 0 0 0 .305-.354c.043-.112.333-1.421.645-2.91.312-1.487.73-3.38.928-4.207.333-1.389.36-1.602.36-2.823v-1.32h-1.422c-1.872 0-1.79.074-1.79-1.618v-1.251l-.344.052c-2.054.315-8.624.306-11.592-.015-1.743-.189-3.473-.448-4.662-.699a20 20 0 0 0-.71-.141c-.02 0-.009.072.025.16M10.866 17.1c-.27.133-.401.462-.401 1v.455h-.533c-.65 0-.936.208-.936.678 0 .451.23.607.892.607h.556l.038.61c.044.684.246.95.72.95.409 0 .64-.369.64-1.021v-.539h.582c.6 0 .778-.094.918-.487.072-.201-.15-.662-.357-.74-.081-.032-.367-.058-.635-.058h-.487l-.038-.598c-.022-.356-.091-.65-.171-.728-.187-.183-.557-.244-.788-.129m27.18 7.556c-.19.189-.225.313-.225.78v.555h-.555c-.467 0-.591.036-.78.225-.276.275-.286.5-.036.818.17.216.252.242.78.242h.59v.555c0 .467.036.59.226.78.273.273.628.29.876.042.146-.146.184-.306.184-.78v-.597h.596c.684 0 .964-.182.964-.627q0-.659-.992-.658h-.568v-.59c0-.528-.026-.61-.242-.78-.318-.25-.543-.24-.818.035"/></g><defs><clipPath id="a"><path fill="#fff" d="M0 .103h47v47H0z"/></clipPath></defs></svg>
